rospo-icon-theme-classic-common/22x22/apps/feedindicator.svg

<svg height="22" viewBox="0 0 22 22" width="22" xmlns="http://www.w3.org/2000/svg"><circle cx="11" cy="11.5" opacity=".2" r="10"/><path d="m21 11c0 5.522847-4.477153 10-10 10-5.5228475 0-10-4.477153-10-10 0-5.5228475 4.4771525-10 10-10 .11214 0 .318545.8304443.429794.8341072 2.503245.082421 3.637303 1.4636555 5.34764 3.0588668 1.892081 1.764722 3.406488 3.0238185 3.484625 5.796347.002687.095341.737941.214689.737941.310679z" fill="#8e8e8e"/><path d="m21 11s-4.477153 0-10 0v-10c5.522847 0 10 4.4771525 10 10z" fill="#ff9044"/><path d="m11 1a10 10 0 0 0 -10 10 10 10 0 0 0  .01075.291 10 10 0 0 1 9.98925-9.791 10 10 0 0 1 9.9895 9.709 10 10 0 0 0  .0105-.209 10 10 0 0 0 -10-10z" fill="#fff" opacity=".2"/><path d="m11 4.5a7 7 0 0 0 -7 7 7 7 0 0 0 7 7 7 7 0 0 0 7-7 7 7 0 0 0 -7-7zm0 1a6 6 0 0 1 6 6 6 6 0 0 1 -6 6 6 6 0 0 1 -6-6 6 6 0 0 1 6-6z" opacity=".2"/><path d="m11 4a7 7 0 0 0 -7 7 7 7 0 0 0 7 7 7 7 0 0 0 7-7 7 7 0 0 0 -7-7zm0 1a6 6 0 0 1 6 6 6 6 0 0 1 -6 6 6 6 0 0 1 -6-6 6 6 0 0 1 6-6z" fill="#fff"/><circle cx="11" cy="11.5" opacity=".2" r="4"/><circle cx="11" cy="11" fill="#fff" r="4"/><circle cx="11" cy="11" fill="#3f3f3f" r="3"/></svg>

<svg xmlns="http://www.w3.org/2000/svg" width="22" height="22" version="1.1" viewBox="0 0 22 22">
 <circle style="opacity:0.2" cx="11" cy="11.5" r="10"/>
 <path style="fill:#8e8e8e" d="M 21,11 C 21,16.522847 16.522847,21 11,21 5.4771525,21 1,16.522847 1,11 1,5.4771525 5.4771525,1 11,1 c 0.11214,0 0.318545,0.8304443 0.429794,0.8341072 2.503245,0.082421 3.637303,1.4636555 5.34764,3.0588668 1.892081,1.764722 3.406488,3.0238185 3.484625,5.796347 C 20.264746,10.784662 21,10.90401 21,11 Z"/>
 <path style="fill:#ff9044" d="m 21,11 c 0,0 -4.477153,0 -10,0 L 11,1 c 5.522847,0 10,4.4771525 10,10 z"/>
 <path style="opacity:0.2;fill:#ffffff" d="M 11,1 A 10,10 0 0 0 1,11 10,10 0 0 0 1.01075,11.291 10,10 0 0 1 11,1.5 10,10 0 0 1 20.9895,11.209 10,10 0 0 0 21,11 10,10 0 0 0 11,1 Z"/>
 <path d="m 11,4.5 a 7,7 0 0 0 -7,7 7,7 0 0 0 7,7 7,7 0 0 0 7,-7 7,7 0 0 0 -7,-7 z m 0,1 a 6,6 0 0 1 6,6 6,6 0 0 1 -6,6 6,6 0 0 1 -6,-6 6,6 0 0 1 6,-6 z" style="opacity:0.2"/>
 <path style="fill:#ffffff" d="m 11,4 a 7,7 0 0 0 -7,7 7,7 0 0 0 7,7 7,7 0 0 0 7,-7 7,7 0 0 0 -7,-7 z m 0,1 a 6,6 0 0 1 6,6 6,6 0 0 1 -6,6 6,6 0 0 1 -6,-6 6,6 0 0 1 6,-6 z"/>
 <circle style="opacity:0.2" cx="11" cy="11.5" r="4"/>
 <circle cx="11" cy="11" r="4" style="fill:#ffffff"/>
 <circle style="fill:#3f3f3f" cx="11" cy="11" r="3"/>
</svg>
